!!!OTL: SCHATZEL WAS HO ICH DIR LEIDES GETHAN
!!!ARE: Europa, Mitteleuropa, Deutschland, Kuhlaendchen
!!!SCT: Z0305
!!!YEM: Copyright 1995, estate of Helmut Schaffrath.
**kern
*ICvox
*Ivox
*M3/8
*k[b-e-]
*g:
=1
{8g
8g
8g
=2
8g
8a
8cc
=3
8b-
8a
8g
=4
4fn
8r}
=5
{8b-
8b-
8b-
=6
8cc
8b-
8cc
=7
8dd
8cc
8dd
=8
4b-
8r}
=9
{8dd
8dd
8dd
=10
4cc
8cc
=11
8dd
8cc
8b-
=12
4a}
{8f#
=13
4g
8a
=14
8b-
8a
8cc
=15
4a
8f#
=16
4g
8r}
==
!!!AGN: Lyrisches Lied, Romanze, verlassene Liebe
!!!ONB: ESAC (Essen Associative Code) Database: ZUCCAL
!!!AMT: simple triple
!!!AIN: vox
!!!EED: Helmut Schaffrath
!!!EEV: 1.0
*-
